X: 1
T: With a Little Help From My Friends
C: Beatles
R: jig
N: This is close to the original version of the tune.
M: 6/8
L: 1/8
K: D
"A"\
|: "D"FGA AGF | "Em"EFG GGG | FEE "A7"EDE |1 "D"F6 :|2 "D"F3 \
"B"\
|:: "D"ADF | "C"EDD "G"DDD | "D"D3 ::|
"C"\
|: "D"AB2 | "Bm"d3 d2d | "Em"cB2- B2E | "D"F2F "C"EFE |1 "G"D3 :|2 "G"D3 "->A"z3 |]
"Coda"\
FEF | "C"EDD DDD | "G"DDD DDD | "Bb"d6- | "Gm6"d6- | "D"Hd6 |] y6 y6 y6 y6
